src/icons/aws-inspector.svg

<?xml version="1.0" encoding="UTF-8"?>
<svg xmlns="http://www.w3.org/2000/svg" xmlns:xlink="http://www.w3.org/1999/xlink" width="32" height="32" viewBox="0 0 32 32" version="1.1">
<defs>
<linearGradient id="linear0" gradientUnits="userSpaceOnUse" x1="0" y1="1" x2="1" y2="0" gradientTransform="matrix(32,0,0,32,0,0)">
<stop offset="0" style="stop-color:rgb(74.117649%,3.137255%,8.627451%);stop-opacity:1;"/>
<stop offset="1" style="stop-color:rgb(100%,32.156864%,32.156864%);stop-opacity:1;"/>
</linearGradient>
</defs>
<g id="surface1">
<rect x="0" y="0" width="32" height="32" style="fill:url(#linear0);stroke:none;"/>
<path style=" stroke:none;fill-rule:evenodd;fill:rgb(100%,100%,100%);fill-opacity:1;" d="M 15.234375 16.476562 C 15.234375 17.296875 14.570312 17.964844 13.753906 17.964844 C 12.941406 17.964844 12.277344 17.296875 12.277344 16.476562 C 12.277344 15.65625 12.941406 14.988281 13.753906 14.988281 C 14.570312 14.988281 15.234375 15.65625 15.234375 16.476562 M 14.546875 12.441406 C 14.125 12.441406 13.785156 12.097656 13.785156 11.675781 C 13.785156 11.253906 14.125 10.910156 14.546875 10.910156 C 14.964844 10.910156 15.304688 11.253906 15.304688 11.675781 C 15.304688 12.097656 14.964844 12.441406 14.546875 12.441406 M 13.90625 19.738281 C 11.019531 19.738281 8.667969 17.371094 8.667969 14.464844 C 8.667969 11.558594 11.019531 9.191406 13.90625 9.191406 C 16.792969 9.191406 19.144531 11.558594 19.144531 14.464844 C 19.144531 15.179688 19 15.863281 18.742188 16.484375 L 16.234375 16.117188 C 16.125 15.359375 15.6875 14.710938 15.066406 14.324219 L 15.066406 13.398438 C 15.800781 13.171875 16.34375 12.488281 16.34375 11.675781 C 16.34375 10.675781 15.535156 9.863281 14.546875 9.863281 C 13.554688 9.863281 12.746094 10.675781 12.746094 11.675781 C 12.746094 12.488281 13.289062 13.171875 14.027344 13.398438 L 14.027344 13.96875 C 13.9375 13.960938 13.847656 13.941406 13.753906 13.941406 C 13.054688 13.941406 12.417969 14.234375 11.960938 14.703125 L 11.578125 14.308594 C 11.808594 13.9375 11.945312 13.503906 11.945312 13.035156 C 11.945312 12.21875 11.539062 11.46875 10.855469 11.027344 L 10.316406 11.871094 C 10.710938 12.128906 10.949219 12.5625 10.949219 13.035156 C 10.949219 13.800781 10.332031 14.421875 9.574219 14.421875 L 9.574219 15.429688 C 10.042969 15.429688 10.476562 15.285156 10.84375 15.050781 L 11.398438 15.617188 C 11.300781 15.886719 11.238281 16.171875 11.238281 16.476562 C 11.238281 17.871094 12.367188 19.007812 13.753906 19.007812 C 14.902344 19.007812 15.863281 18.222656 16.164062 17.164062 L 18.210938 17.460938 C 17.261719 18.835938 15.6875 19.738281 13.90625 19.738281 M 13.90625 8.148438 C 10.445312 8.148438 7.632812 10.980469 7.632812 14.464844 C 7.632812 17.949219 10.445312 20.785156 13.90625 20.785156 C 17.367188 20.785156 20.179688 17.949219 20.179688 14.464844 C 20.179688 10.980469 17.367188 8.148438 13.90625 8.148438 M 25.679688 25.089844 C 25.269531 25.542969 24.570312 25.582031 24.113281 25.171875 L 19.382812 20.871094 C 19.941406 20.386719 20.441406 19.832031 20.859375 19.214844 L 25.597656 23.511719 C 26.050781 23.925781 26.085938 24.632812 25.679688 25.089844 M 6.539062 14.464844 C 6.539062 10.375 9.84375 7.046875 13.90625 7.046875 C 17.96875 7.046875 21.273438 10.375 21.273438 14.464844 C 21.273438 18.558594 17.96875 21.886719 13.90625 21.886719 C 9.84375 21.886719 6.539062 18.558594 6.539062 14.464844 M 26.292969 22.738281 L 21.394531 18.292969 C 21.976562 17.140625 22.3125 15.84375 22.3125 14.464844 C 22.3125 9.796875 18.542969 6 13.90625 6 C 9.269531 6 5.5 9.796875 5.5 14.464844 C 5.5 19.132812 9.269531 22.929688 13.90625 22.929688 C 15.621094 22.929688 17.214844 22.410156 18.542969 21.519531 L 23.421875 25.949219 C 23.828125 26.316406 24.34375 26.5 24.855469 26.5 C 25.441406 26.5 26.027344 26.257812 26.453125 25.789062 C 27.242188 24.902344 27.167969 23.535156 26.292969 22.738281 "/>
</g>
</svg>

<svg role="img" viewBox="0 0 32 32" xmlns="http://www.w3.org/2000/svg" xmlns:xlink="http://www.w3.org/1999/xlink"><defs><linearGradient gradientTransform="scale(32)" gradientUnits="userSpaceOnUse" id="a" x1="0" x2="1" y1="1" y2="0"><stop offset="0" style="stop-color:rgb(74.117649%,3.137255%,8.627451%);stop-opacity:1"/><stop offset="1" style="stop-color:rgb(100%,32.156864%,32.156864%);stop-opacity:1"/></linearGradient></defs><path d="M0 0h32v32H0z" style="fill:url(#a);stroke:none"/><path d="M15.234 16.477c0 .82-.664 1.488-1.48 1.488a1.485 1.485 0 0 1-1.477-1.488c0-.82.664-1.489 1.477-1.489.816 0 1.48.668 1.48 1.489m-.687-4.036a.764.764 0 0 1-.762-.765c0-.422.34-.766.762-.766.418 0 .758.344.758.766 0 .422-.34.765-.758.765m-.64 7.297c-2.887 0-5.239-2.367-5.239-5.273 0-2.906 2.352-5.274 5.238-5.274 2.887 0 5.239 2.368 5.239 5.274 0 .715-.145 1.398-.403 2.02l-2.508-.368a2.536 2.536 0 0 0-1.168-1.793v-.926a1.809 1.809 0 0 0-.52-3.535 1.807 1.807 0 0 0-.52 3.535l.001.57c-.09-.007-.18-.027-.273-.027a2.5 2.5 0 0 0-1.793.762l-.383-.394c.23-.371.367-.805.367-1.274 0-.816-.406-1.566-1.09-2.008l-.539.844c.395.258.633.691.633 1.164 0 .766-.617 1.387-1.375 1.387v1.008a2.35 2.35 0 0 0 1.27-.38l.554.567c-.097.27-.16.555-.16.86a2.527 2.527 0 0 0 2.516 2.53c1.148 0 2.11-.784 2.41-1.843l2.047.297a5.227 5.227 0 0 1-4.305 2.277m0-11.59c-3.46 0-6.273 2.832-6.273 6.317 0 3.484 2.812 6.32 6.273 6.32s6.274-2.836 6.274-6.32c0-3.485-2.813-6.317-6.274-6.317M25.68 25.09a1.11 1.11 0 0 1-1.567.082l-4.73-4.3a8.524 8.524 0 0 0 1.476-1.657l4.739 4.297c.453.414.488 1.12.082 1.578M6.54 14.465c0-4.09 3.304-7.418 7.366-7.418 4.063 0 7.367 3.328 7.367 7.418 0 4.094-3.304 7.422-7.367 7.422-4.062 0-7.367-3.328-7.367-7.422m19.754 8.273-4.898-4.445a8.462 8.462 0 0 0 .918-3.828c0-4.668-3.77-8.465-8.407-8.465C9.27 6 5.5 9.797 5.5 14.465c0 4.668 3.77 8.465 8.406 8.465a8.3 8.3 0 0 0 4.637-1.41l4.879 4.43c.406.366.922.55 1.433.55a2.16 2.16 0 0 0 1.598-.71 2.18 2.18 0 0 0-.16-3.052" style="stroke:none;fill-rule:evenodd;fill:rgb(100%,100%,100%);fill-opacity:1"/></svg>
